svgs/avast_cleanup.svg

<svg width="192" height="192" viewBox="0 0 192 192" fill="none" xmlns="http://www.w3.org/2000/svg">
<path d="M81.4759 64.2826C93.6126 52.6233 110.765 46.4523 128.696 48.9723C146.155 51.4259 160.634 61.5968 169.187 75.5644C169.418 75.942 169.645 76.3221 169.867 76.7052M61.8633 92.3379C57.8344 75.9976 61.0666 58.0573 72.2144 43.7887C83.0686 29.8959 99.1166 22.4418 115.489 22.0192C115.932 22.0077 116.374 22.0012 116.817 22M76.2437 124.503C60.0781 119.822 46.1574 108.053 39.3744 91.2641C32.77 74.9176 34.3385 57.2926 42.1587 42.9024C42.37 42.5133 42.5858 42.1267 42.8062 41.7424M110.391 127.771C98.2548 139.43 81.1019 145.601 63.1711 143.081C45.7124 140.628 31.2329 130.457 22.6808 116.489C22.4495 116.112 22.2226 115.731 22 115.348M116.503 66.4451C132.669 71.1261 146.589 82.8955 153.372 99.684C159.977 116.03 158.408 133.656 150.588 148.046C150.377 148.435 150.161 148.821 149.941 149.206M131.441 99.662C135.47 116.002 132.238 133.943 121.09 148.211C110.236 162.104 94.1879 169.558 77.8156 169.981C77.373 169.992 76.9303 169.999 76.4872 170" stroke="black" stroke-width="12" stroke-linecap="round"/>
</svg>

<svg width="192" height="192" viewBox="0 0 192 192" fill="none" xmlns="http://www.w3.org/2000/svg"><path d="M81.476 64.283c12.137-11.66 29.289-17.83 47.22-15.31 17.459 2.453 31.938 12.624 40.491 26.591.231.378.458.758.68 1.141M61.863 92.338c-4.029-16.34-.796-34.28 10.351-48.55C83.07 29.897 99.117 22.443 115.49 22.02c.443-.011.885-.018 1.328-.019M76.244 124.503c-16.166-4.681-30.087-16.45-36.87-33.239-6.604-16.346-5.035-33.971 2.785-48.362.211-.389.427-.775.647-1.16m67.585 86.029c-12.136 11.659-29.29 17.83-47.22 15.31-17.459-2.453-31.938-12.624-40.49-26.592a55.804 55.804 0 0 1-.681-1.141m94.503-48.903c16.166 4.681 30.086 16.45 36.869 33.239 6.605 16.346 5.036 33.972-2.784 48.362-.211.389-.427.775-.647 1.16m-18.5-49.544c4.029 16.34.797 34.281-10.351 48.549-10.854 13.893-26.902 21.347-43.274 21.77a58.8 58.8 0 0 1-1.329.019" stroke="#000" stroke-width="12" stroke-linecap="round"/></svg>
